assets/icons/logo.svg

<svg width="104" height="30" viewBox="0 0 104 30" fill="none" xmlns="http://www.w3.org/2000/svg">
<path fill-rule="evenodd" clip-rule="evenodd" d="M5.34906 0.103386C3.22375 1.01086 0.881358 3.5683 0.144313 6.78057C-0.789613 10.8488 3.10259 12.5709 3.42568 12.0089C3.7942 11.3437 2.72397 11.1169 2.50185 9.00802C2.2141 6.28043 3.46606 3.23316 5.03607 1.89772C5.32887 1.65022 5.31372 1.99568 5.31372 2.63504C5.31372 3.7797 5.25314 14.0456 5.25314 16.1853C5.25314 19.0831 5.13703 20.0009 4.92501 20.9032C4.70793 21.821 4.36465 22.4397 4.62716 22.6769C4.91996 22.945 6.16688 22.3108 6.88373 21.2848C7.74698 20.0576 8.04987 18.5829 8.10541 16.9845C8.17103 15.051 8.16599 11.9934 8.17103 10.2455C8.17103 8.64193 8.19627 3.95501 8.14579 1.13461C8.1256 0.448846 6.2426 -0.273011 5.34906 0.103386ZM103.522 15.3294C103.214 15.3294 103.073 15.6543 102.957 16.1957C102.553 18.088 102.129 18.5159 101.579 18.5159C100.968 18.5159 100.418 17.5775 100.276 15.7007C100.165 14.226 100.18 11.5087 100.322 8.80693C100.352 8.25007 100.201 7.70352 98.7367 7.16212C98.1056 6.9301 97.1868 6.58464 96.7325 7.70867C95.4452 10.8694 94.9404 13.3804 94.8192 14.4013C94.8142 14.4529 94.7485 14.4632 94.7384 14.3446C94.6627 13.5248 94.4961 12.0398 94.4709 8.92036C94.4658 8.31194 94.3396 7.79117 93.6783 7.36837C93.2492 7.09509 91.9468 6.60526 91.4773 7.1879C91.0734 7.66227 90.5989 8.93583 90.1092 10.4466C89.7104 11.6737 89.4378 12.5039 89.4378 12.5039C89.4378 12.5039 89.4428 9.18848 89.4479 7.93554C89.4479 7.46118 89.1298 7.3065 89.0339 7.27556C88.5998 7.14666 87.7416 6.93525 87.3781 6.93525C86.9288 6.93525 86.8228 7.1879 86.8228 7.55915C86.8228 7.60555 86.7521 11.9212 86.7521 14.9376V15.3655C86.5047 16.7525 85.7021 18.6345 84.8287 18.6345C83.9503 18.6345 83.5414 17.8508 83.5414 14.2518C83.5414 12.1533 83.602 11.2406 83.6323 9.72472C83.6474 8.85333 83.6828 8.17788 83.6828 8.02835C83.6777 7.55915 82.8801 7.32712 82.5116 7.23947C82.138 7.15181 81.8149 7.11572 81.5625 7.13119C81.2041 7.15181 80.9517 7.38899 80.9517 7.71899C80.9517 7.89429 80.9517 8.22944 80.9517 8.22944C80.4923 7.49727 79.7552 6.98682 79.2605 6.83729C77.9379 6.44027 76.5546 6.79088 75.5097 8.27585C74.6817 9.45144 74.182 10.7869 73.9851 12.705C73.8387 14.1074 73.8892 15.5305 74.1416 16.7319C73.8336 18.088 73.2581 18.6448 72.6321 18.6448C71.7235 18.6448 71.0621 17.1341 71.1379 14.5199C71.1883 12.8029 71.5266 11.5964 71.8951 9.84847C72.0516 9.10598 71.9254 8.71412 71.6023 8.34288C71.3095 8.00257 70.6785 7.82726 69.7748 8.03867C69.1337 8.19335 68.2099 8.35835 67.3719 8.48209C67.3719 8.48209 67.4224 8.27585 67.4627 7.91492C67.6798 6.01231 65.6454 6.16699 64.9941 6.77541C64.6054 7.1415 64.3429 7.56946 64.242 8.33772C64.0855 9.55972 65.0648 10.1372 65.0648 10.1372C64.7417 11.6325 63.9542 13.5867 63.1414 14.9994C62.7073 15.7574 62.3691 16.3194 61.94 16.9124C61.94 16.6906 61.94 16.4689 61.9349 16.2472C61.9248 13.102 61.9652 10.627 61.9854 9.73503C62.0005 8.86365 62.0359 8.20882 62.0359 8.05413C62.0308 7.71383 61.8339 7.58493 61.425 7.41993C61.0616 7.27556 60.6375 7.17759 60.1933 7.1415C59.638 7.09509 59.2997 7.39931 59.3098 7.75508C59.3098 7.82211 59.3098 8.2346 59.3098 8.2346C58.8504 7.50243 58.1134 6.99197 57.6187 6.84244C56.296 6.44542 54.9128 6.79604 53.8678 8.281C53.0399 9.4566 52.4997 11.1117 52.3432 12.6946C52.2019 14.1693 52.2271 15.4222 52.424 16.4792C52.212 17.5363 51.6062 18.6448 50.9247 18.6448C50.0513 18.6448 49.5515 17.8611 49.5515 14.2621C49.5515 12.1636 49.6121 11.2509 49.6424 9.73503C49.6626 8.86365 49.6929 8.18819 49.6929 8.03867C49.6879 7.56946 48.8902 7.33743 48.5217 7.24978C48.133 7.15697 47.7998 7.12603 47.5423 7.14666C47.2041 7.17244 46.9668 7.4818 46.9668 7.70867V8.23975C46.5075 7.50758 45.7654 6.99713 45.2757 6.8476C43.953 6.45058 42.5799 6.81151 41.5299 8.28616C40.8433 9.25036 40.288 10.3177 40.0053 12.6792C39.9195 13.3598 39.8841 13.9991 39.8892 14.5973C39.6166 16.2988 38.4101 18.253 37.4256 18.253C36.8501 18.253 36.2999 17.1134 36.2999 14.6901C36.2999 11.4572 36.4968 6.85791 36.5321 6.41449C36.5321 6.41449 37.779 6.39386 38.0213 6.38871C38.6423 6.38355 39.2077 6.39902 40.0356 6.35261C40.4495 6.33199 40.8484 4.81609 40.4243 4.63047C40.2274 4.54281 38.8543 4.47063 38.3091 4.46031C37.8749 4.43453 36.5977 4.33657 36.5977 4.33657C36.5977 4.33657 36.7138 1.28414 36.7391 0.959303C36.7593 0.691184 36.416 0.551969 36.2242 0.469471C35.7446 0.263226 35.3205 0.165259 34.8157 0.0621369C34.114 -0.0873908 33.801 0.0569808 33.7354 0.660248C33.6395 1.56773 33.594 4.2386 33.594 4.2386C33.0791 4.2386 31.3274 4.13548 30.8175 4.13548C30.3379 4.13548 29.828 6.21855 30.4843 6.24433C31.2415 6.27527 32.5642 6.30105 33.4426 6.32683C33.4426 6.32683 33.4022 11.0034 33.4022 12.4472C33.4022 12.5967 33.4022 12.7462 33.4022 12.8906C32.9226 15.448 31.2213 16.8247 31.2213 16.8247C31.5848 15.1335 30.8427 13.8651 29.4999 12.7926C29.0052 12.3956 28.0309 11.648 26.9354 10.823C26.9354 10.823 27.5664 10.1888 28.1318 8.91521C28.5306 8.01289 28.5458 6.9765 27.5715 6.74963C25.9611 6.37324 24.6283 7.57461 24.2346 8.86365C23.9266 9.85878 24.0932 10.5961 24.694 11.3644C24.7343 11.4211 24.7848 11.4778 24.8353 11.5345C24.4718 12.2512 23.9721 13.2103 23.548 13.9527C22.3718 16.0204 21.4833 17.6548 20.8119 17.6548C20.2767 17.6548 20.2818 15.9946 20.2818 14.4426C20.2818 13.102 20.3777 11.0911 20.4585 9.00286C20.4837 8.31194 20.1455 7.92007 19.575 7.5643C19.2318 7.34774 18.4947 6.91979 18.0656 6.91979C17.4245 6.91979 15.5819 7.00744 13.8402 12.1326C13.6231 12.7771 13.189 13.9579 13.189 13.9579L13.2243 7.79633C13.2243 7.65196 13.1486 7.51274 12.977 7.41477C12.6842 7.24978 11.8966 6.91979 11.2 6.91979C10.8668 6.91979 10.7002 7.07963 10.7002 7.39415L10.6396 17.0361C10.6396 17.7683 10.6598 18.6242 10.7305 18.9954C10.8012 19.3667 10.9173 19.676 11.0586 19.8565C11.2 20.037 11.3666 20.1762 11.6341 20.2329C11.8865 20.2845 13.2698 20.4649 13.3404 19.9287C13.4263 19.2842 13.4313 18.5881 14.1583 15.9946C15.2891 11.9522 16.7632 9.98253 17.4548 9.28129C17.5759 9.15755 17.7173 9.15239 17.7072 9.35348C17.6769 10.2403 17.5759 12.4575 17.5052 14.3343C17.3185 19.3667 18.2171 20.2999 19.5044 20.2999C20.4888 20.2999 21.877 19.3048 23.3663 16.7886C24.2951 15.2212 25.1937 13.6795 25.845 12.5709C26.2943 12.9937 26.8041 13.4526 27.309 13.9373C28.4852 15.0716 28.8689 16.1493 28.6164 17.1702C28.4196 17.9539 27.6825 18.7583 26.37 17.9745C25.9863 17.7477 25.8248 17.5723 25.4411 17.3094C25.2341 17.1702 24.9161 17.1289 24.7293 17.2784C24.2396 17.6548 23.9569 18.1344 23.7954 18.7273C23.6389 19.3048 24.2093 19.609 24.7949 19.8771C25.3048 20.1092 26.3952 20.3154 27.0919 20.3412C29.8028 20.434 31.9735 19.0109 33.488 15.3397C33.7606 18.5108 34.9116 20.3051 36.9107 20.3051C38.2485 20.3051 39.5913 18.5469 40.1769 16.8195C40.3435 17.5259 40.596 18.1395 40.914 18.6551C42.4588 21.1404 45.4473 20.6041 46.9517 18.4953C47.4161 17.8456 47.4868 17.6084 47.4868 17.6084C47.7039 19.5987 49.284 20.2948 50.1876 20.2948C51.1973 20.2948 52.2423 19.8101 52.9743 18.1344C53.0601 18.3148 53.156 18.4901 53.257 18.6551C54.7967 21.1404 57.7903 20.6041 59.2896 18.4953C59.3603 18.3973 59.4209 18.3097 59.4764 18.2272L59.5218 19.5368C59.5218 19.5368 58.6636 20.336 58.1386 20.8259C55.8215 22.9863 54.0596 24.6259 53.9284 26.5337C53.7618 28.9674 55.7054 29.8697 57.1744 29.9883C58.7343 30.112 60.0721 29.2407 60.8899 28.0135C61.6118 26.9359 62.0864 24.6105 62.051 22.3211C62.0359 21.4033 62.0157 20.2381 61.9955 18.9851C62.8083 18.0261 63.727 16.8092 64.5701 15.3913C65.4889 13.8393 66.4783 11.7614 66.9832 10.1424C66.9832 10.1424 67.8414 10.1475 68.7551 10.0908C69.0479 10.0753 69.1287 10.1321 69.0782 10.3486C69.0126 10.6116 67.9221 14.886 68.9166 17.7322C69.5982 19.6812 71.1328 20.3102 72.0415 20.3102C73.1067 20.3102 74.1264 19.4956 74.6716 18.2787C74.7373 18.4128 74.8079 18.5417 74.8837 18.6654C76.4234 21.1507 79.4069 20.6093 80.9214 18.5056C81.2647 18.0312 81.4565 17.6187 81.4565 17.6187C81.7796 19.6812 83.3597 20.3154 84.2633 20.3154C85.2023 20.3154 86.0958 19.9235 86.8228 18.1808C86.8531 18.949 86.9035 19.5781 86.9742 19.774C87.0197 19.8926 87.2872 20.0473 87.4841 20.1195C88.3474 20.4443 89.2207 20.2896 89.5488 20.2226C89.776 20.1762 89.9476 19.9906 89.9729 19.5214C90.0335 18.2787 89.9981 16.1853 90.3667 14.6334C90.9876 12.0244 91.5681 11.0138 91.8458 10.5136C91.9972 10.2352 92.1739 10.1888 92.179 10.4827C92.1941 11.0859 92.2244 12.8442 92.4617 15.216C92.6384 16.9588 92.8756 17.99 93.0574 18.3148C93.5773 19.2481 94.2185 19.2893 94.7384 19.2893C95.0716 19.2893 95.7632 19.1965 95.7027 18.6036C95.6724 18.3148 95.7279 16.5308 96.3387 13.9579C96.7426 12.2822 97.409 10.7663 97.6513 10.2146C97.7421 10.0083 97.7825 10.1733 97.7825 10.2042C97.7321 11.3592 97.6159 15.1335 98.0804 17.2011C98.7064 20.0009 100.524 20.3102 101.155 20.3102C102.503 20.3102 103.608 19.2687 103.982 16.5205C104.052 15.845 103.921 15.3294 103.522 15.3294ZM46.9668 13.6331C46.8911 15.0871 46.6084 16.3039 46.1642 17.1856C45.3514 18.784 43.7511 19.2893 43.0443 16.9794C42.5345 15.314 42.7061 13.0453 42.9181 11.8181C43.2311 9.99799 44.0187 8.70896 45.2504 8.83271C46.5175 8.96161 47.1284 10.6116 46.9668 13.6331ZM59.3098 13.6537C59.2391 15.0252 58.8858 16.4071 58.5071 17.1856C57.7196 18.7943 56.0688 19.2996 55.3873 16.9794C54.9229 15.3965 55.0339 13.3495 55.2611 12.0604C55.559 10.3847 56.2859 8.83271 57.5934 8.83271C58.8656 8.83271 59.4916 10.2506 59.3098 13.6537ZM59.6329 23.0224C59.6178 25.5282 59.229 27.7196 58.3961 28.359C57.2148 29.2613 55.6296 28.5858 55.9578 26.7606C56.2506 25.1415 57.6186 23.4916 59.6329 21.4755C59.638 21.4704 59.638 21.9293 59.6329 23.0224ZM80.9365 13.6692C80.8659 15.1747 80.5377 16.3555 80.1339 17.1856C79.3463 18.7943 77.7056 19.2945 77.014 16.9794C76.6354 15.7213 76.6203 13.6124 76.8929 11.8542C77.1705 10.065 77.9429 8.70896 79.2252 8.83271C80.4822 8.95646 81.0728 10.6116 80.9365 13.6692Z" fill="black"/>
</svg>

<svg xmlns="http://www.w3.org/2000/svg" width="104" height="30" fill="none"><path fill="#000" fill-rule="evenodd" d="M5.35.103C3.223 1.011.88 3.568.143 6.781c-.934 4.068 2.959 5.79 3.282 5.228.368-.665-.702-.892-.924-3.001-.288-2.728.964-5.775 2.534-7.11.293-.248.278.098.278.737 0 1.145-.06 11.41-.06 13.55 0 2.898-.117 3.816-.329 4.718-.217.918-.56 1.537-.298 1.774.293.268 1.54-.366 2.257-1.392.863-1.227 1.166-2.702 1.221-4.3.066-1.934.061-4.992.066-6.74 0-1.603.025-6.29-.025-9.11C8.126.449 6.243-.273 5.349.103Zm98.172 15.226c-.308 0-.449.325-.565.867-.404 1.892-.828 2.32-1.378 2.32-.611 0-1.161-.938-1.303-2.815-.111-1.475-.096-4.192.046-6.894.03-.557-.121-1.103-1.585-1.645-.631-.232-1.55-.577-2.004.547-1.288 3.16-1.793 5.671-1.914 6.692-.005.052-.07.062-.08-.056-.076-.82-.243-2.305-.268-5.425-.005-.608-.131-1.129-.793-1.552-.429-.273-1.731-.763-2.2-.18-.405.474-.88 1.748-1.369 3.259-.399 1.227-.671 2.057-.671 2.057s.005-3.316.01-4.568c0-.475-.318-.63-.414-.66-.434-.13-1.292-.34-1.656-.34-.45 0-.555.252-.555.623 0 .047-.07 4.362-.07 7.379v.428c-.248 1.387-1.05 3.268-1.924 3.268-.879 0-1.288-.783-1.288-4.382 0-2.099.061-3.011.091-4.527.015-.872.05-1.547.05-1.697-.004-.469-.802-.7-1.17-.789-.374-.087-.697-.123-.95-.108-.358.02-.61.258-.61.588v.51c-.46-.732-1.197-1.242-1.692-1.392-1.322-.397-2.705-.046-3.75 1.439-.828 1.175-1.328 2.51-1.525 4.429-.146 1.402-.096 2.825.157 4.027-.308 1.356-.884 1.913-1.51 1.913-.909 0-1.57-1.51-1.494-4.125.05-1.717.389-2.924.757-4.672.157-.742.03-1.134-.293-1.505-.293-.34-.924-.516-1.827-.304-.641.154-1.565.32-2.403.443 0 0 .05-.206.09-.567.218-1.903-1.817-1.748-2.468-1.14-.389.366-.651.794-.752 1.563-.157 1.222.823 1.8.823 1.8-.323 1.495-1.11 3.449-1.924 4.861-.434.758-.772 1.32-1.201 1.913 0-.221 0-.443-.005-.665-.01-3.145.03-5.62.05-6.512.016-.871.05-1.526.05-1.68-.004-.341-.201-.47-.61-.635a4.325 4.325 0 0 0-1.232-.279c-.555-.046-.893.258-.883.614v.48c-.46-.733-1.197-1.243-1.691-1.393-1.323-.397-2.706-.046-3.751 1.439-.828 1.176-1.368 2.83-1.525 4.414-.141 1.474-.116 2.727.081 3.784-.212 1.057-.818 2.166-1.5 2.166-.873 0-1.373-.784-1.373-4.383 0-2.098.061-3.011.091-4.527.02-.871.05-1.547.05-1.696-.004-.47-.802-.702-1.17-.79-.389-.092-.722-.123-.98-.102-.338.025-.575.335-.575.562v.53c-.46-.731-1.202-1.242-1.691-1.391-1.323-.397-2.696-.036-3.746 1.438-.687.964-1.242 2.032-1.525 4.393-.086.68-.12 1.32-.116 1.918-.272 1.702-1.479 3.656-2.463 3.656-.576 0-1.126-1.14-1.126-3.563 0-3.233.197-7.832.232-8.276l1.49-.025c.62-.005 1.186.01 2.014-.036.413-.021.812-1.537.388-1.723-.197-.087-1.57-.16-2.115-.17-.434-.025-1.711-.123-1.711-.123s.116-3.053.141-3.378c.02-.268-.323-.407-.515-.49-.48-.206-.903-.304-1.408-.407-.702-.15-1.015-.005-1.08.598-.096.908-.142 3.579-.142 3.579-.515 0-2.267-.104-2.777-.104-.48 0-.989 2.084-.333 2.11.757.03 2.08.056 2.959.082 0 0-.04 4.676-.04 6.12v.444c-.48 2.557-2.182 3.934-2.182 3.934.364-1.691-.378-2.96-1.721-4.032a127.622 127.622 0 0 0-2.565-1.97s.631-.634 1.197-1.908c.399-.902.414-1.938-.56-2.165-1.61-.377-2.944.825-3.337 2.114-.308.995-.142 1.732.459 2.5.04.057.09.114.141.17a60.398 60.398 0 0 1-1.287 2.419c-1.176 2.067-2.065 3.702-2.736 3.702-.535 0-.53-1.66-.53-3.212 0-1.341.096-3.352.177-5.44.025-.691-.314-1.083-.884-1.439-.343-.216-1.08-.644-1.51-.644-.64 0-2.483.087-4.225 5.213-.217.644-.651 1.825-.651 1.825l.035-6.162c0-.144-.075-.283-.247-.381-.293-.165-1.08-.495-1.777-.495-.333 0-.5.16-.5.474l-.06 9.642c0 .732.02 1.588.09 1.96.071.37.187.68.329.86.141.181.308.32.575.377.252.052 1.636.232 1.706-.304.086-.645.091-1.34.818-3.934 1.131-4.043 2.605-6.012 3.297-6.714.12-.123.262-.129.252.072-.03.887-.131 3.104-.202 4.981-.186 5.033.712 5.966 2 5.966.984 0 2.372-.995 3.861-3.511.93-1.568 1.828-3.11 2.479-4.218.45.423.96.882 1.464 1.366 1.176 1.135 1.56 2.212 1.307 3.233-.196.784-.933 1.588-2.246.804-.384-.226-.545-.402-.929-.665-.207-.139-.525-.18-.712-.03-.49.376-.772.855-.934 1.448-.156.578.414.882 1 1.15.51.232 1.6.438 2.297.464 2.71.093 4.882-1.33 6.396-5.001.273 3.17 1.424 4.965 3.423 4.965 1.337 0 2.68-1.758 3.266-3.485.166.706.419 1.32.737 1.835 1.545 2.485 4.533 1.95 6.038-.16.464-.65.535-.887.535-.887.217 1.99 1.797 2.687 2.7 2.687 1.01 0 2.055-.485 2.787-2.16.086.18.182.355.283.52 1.54 2.485 4.533 1.95 6.033-.16.07-.098.13-.185.186-.268l.046 1.31-1.383 1.289c-2.318 2.16-4.08 3.8-4.21 5.708-.167 2.433 1.776 3.336 3.245 3.454 1.56.124 2.898-.747 3.716-1.974.722-1.078 1.196-3.404 1.161-5.693l-.056-3.336a26.78 26.78 0 0 0 2.575-3.594c.919-1.552 1.908-3.63 2.413-5.249 0 0 .858.006 1.772-.051.293-.016.374.041.323.258-.065.263-1.156 4.537-.161 7.383.681 1.95 2.216 2.578 3.124 2.578 1.066 0 2.085-.814 2.63-2.031.066.134.137.263.213.386 1.54 2.486 4.523 1.944 6.037-.16.344-.474.535-.886.535-.886.324 2.062 1.904 2.696 2.807 2.696.94 0 1.833-.392 2.56-2.134.03.768.08 1.397.151 1.593.046.119.313.273.51.345.863.325 1.737.17 2.065.104.227-.047.399-.232.424-.702.06-1.242.025-3.336.394-4.888.62-2.609 1.201-3.62 1.479-4.12.151-.278.328-.324.333-.03.015.603.045 2.361.283 4.733.176 1.743.414 2.774.595 3.099.52.933 1.162.974 1.681.974.334 0 1.025-.093.965-.685-.03-.29.025-2.073.636-4.646.404-1.676 1.07-3.192 1.312-3.743.091-.207.132-.042.132-.01-.05 1.154-.167 4.928.297 6.996.626 2.8 2.444 3.11 3.075 3.11 1.348 0 2.453-1.042 2.827-3.79.07-.676-.061-1.192-.46-1.192Zm-56.555-1.696c-.076 1.454-.359 2.67-.803 3.553-.813 1.598-2.413 2.103-3.12-.207-.51-1.665-.338-3.934-.126-5.16.313-1.821 1.1-3.11 2.332-2.986 1.267.129 1.878 1.779 1.717 4.8Zm12.343.02c-.07 1.372-.424 2.754-.803 3.533-.787 1.608-2.438 2.114-3.12-.207-.464-1.582-.353-3.63-.126-4.919.298-1.675 1.025-3.227 2.332-3.227 1.273 0 1.899 1.418 1.717 4.82Zm.323 9.37c-.015 2.505-.404 4.697-1.237 5.336-1.181.902-2.766.227-2.438-1.598.293-1.62 1.66-3.27 3.675-5.285.005-.006.005.453 0 1.546Zm21.303-9.354c-.07 1.506-.398 2.686-.802 3.517-.788 1.608-2.428 2.108-3.12-.207-.379-1.258-.394-3.367-.121-5.125.278-1.789 1.05-3.145 2.332-3.021 1.257.123 1.848 1.779 1.712 4.836Z" clip-rule="evenodd"/></svg>
